apps/spreadsheeteditor/main/resources/img/toolbar/2.5x/btn-remove-duplicates.svg

<svg width="20" height="20" viewBox="0 0 20 20" fill="none" xmlns="http://www.w3.org/2000/svg">
<path fill-rule="evenodd" clip-rule="evenodd" d="M14 5H17V8H14V5ZM18 5V8V9V12V13V16V17H17H14H13V16V13V12V9V8V5V4H14H17H18V5ZM14 12H17V9H14V12ZM17 13H14V16H17V13ZM9.85355 8.1416L12.2071 10.4952L9.85355 12.8487L9.14645 12.1416L10.2929 10.9952H8V9.99515H10.2929L9.14645 8.84871L9.85355 8.1416ZM6 16V13H3V16H6ZM2 13V16V17H3H6H7V16V13V12V9V8V5V4H6H3H2V5V8V9V12V13ZM3 9H6V12H3V9ZM6 8H3V5H6V8ZM5 6H4V7H5V6ZM4 10H5V11H4V10ZM5 14H4V15H5V14ZM15 10H16V11H15V10ZM16 6H15V7H16V6Z" fill="black"/>
<path opacity="0.4" fill-rule="evenodd" clip-rule="evenodd" d="M3 5H6V8H3V5ZM3 13H6V16H3V13ZM17 5H14V8H17V5Z" fill="black"/>
</svg>

<svg xmlns="http://www.w3.org/2000/svg" width="20" height="20" fill="none"><path fill="#000" d="M6 16H3v-3h3v3Zm0-8H3V5h3v3Zm11 0h-3V5h3v3Z" opacity=".4"/><path fill="#000" d="M5 15H4v-1h1v1Zm0-4H4v-1h1v1Zm0-4H4V6h1v1Z"/><path fill="#000" d="M7 17H2V4h5v13Zm-4-1h3v-3H3v3Zm0-4h3V9H3v3Zm0-4h3V5H3v3Zm13 3h-1v-1h1v1Zm0-4h-1V6h1v1Z"/><path fill="#000" d="M18 17h-5V4h5v13Zm-4-1h3v-3h-3v3Zm0-4h3V9h-3v3Zm0-4h3V5h-3v3Zm-1.793 2.5-2.353 2.354-.708-.707L10.293 11H8v-1h2.293L9.146 8.854l.708-.708 2.353 2.354Z"/></svg>
